!!!COM: Saint-Saens, Camille
!!!CNT: Francais
!!!TXO: Francais
!!!OTL: Au Cimetie\re
!!!LYR: Armand Renaud
!!!ENC: Jacob Pegg
!!!YOR: Huit melodies : for high voice
!!!YOR: Huntsville, TX: Recital Publications, 1982 
!!!ODT: 1870/
!!NB: Vocal melody and text only encoded.
!!NB: First instance of melodic material only encoded.
**kern	**silbe
*clef G2	*
*k[f#c#g#]	*
*M12/8	*
!!created: 3/2/04 10:41 AM
!!proofed and posted: 3/2/04 12:43 PM
!!edit time: 37 min.
=1	=1
1r	.
2r	.
=2	=2
2r	.
1r	.
=3	=3
4r	.
{8a	{As-
4cc#	-sis
8cc#	sur
4ee	cet-
8ee	-te
4ff#	blan-
8ff#	-che
=4	=4
2.ffn	tom-
2.ffn}	-be,}
=5	=5
4r	.
{8ee	{Ou-
([4.ee	-vrons
8ee]	|
8dd	|
8cc#)	|
(8cc#	no-
8b)	|
8a	-tre
=6	=6
2.a}	coeur!}
4r	.
{8a	{Du
4cc#	mar-
8cc#	-bre,
=7	=7
4ee	sous
8ee	la
4ff#	nuit
8ff#	qui
2.ffn	tom-
=8	=8
2.ffn}	-be,}
4r	.
{8ee	{Le
([4.ee	char-
=9	=9
8ee]	|
8dd	|
8cc#)	|
(8cc#	-me est
8b)	|
8a	vain-
2.a}	-quer.}
=10	=10
1r	.
2r	.
=11	=11
2r	.
1r	.
=12	=12
{4ee	{Au
8b	mur-
4.b	-mur-
4b	-re
8cc#	de
(8dd	nos
8cc#)	|
8b	pa-
=13	=13
2.dd	-ro-
2.a	-les,
=14	=14
4.a	Le
4.b	mort
4cc#	vi-
8cc#	-bre-
[4.cc#	-ra;
=15	=15
4.cc#]}	|}
4r	.
8r	.
2r	.
4r	.
!!mm. 16-17 repeat of prior 2 mm.
!!used rests to reduce proof errors
=16	=16
1r	.
2r	.
=17	=17
2r	.
1r	.
=18	=18
4r	.
8r	.
{4.a	{Sur
4.b	son
4cc#	Sa-
8cc#	-ha-
=19	=19
[1.cc#	-ra.
=20	=20
8cc#]}	|}
8r	.
8r	.
4r	.
8r	.
2r	.
4r	.
!!21-38 prev. stated melodic material.
=39	=39
{4.b	{Toi,
4ee	tu
8ff#	fe-
4ggn	-ras
8ff#	son-
4ee	-ner,
8dd	ma
=40	=40
4.dd	bel-
4b}	-le,}
8r	.
{4.dd	{Tes
8b	or-
8a	-ne-
8gn	-ments
=41	=41
[4.a	d'or,
8a]}	|}
8r	.
8r	.
{4b	{Pour
8b	que
4ee	mon
8ff#	de/-
=42	=42
(4ggn	-sir
8ff#)	|
4ee	ou-
8dd	-vre
4.dd	l'ai-
4b}	-le,}
8r	.
=43	=43
{4a	{Quand
8a	l'oi-
4dd	-seau
8cc#	s'en-
[2.dd	-dort.
=44	=44
8dd]}	|}
8r	.
8r	.
4r	.
8r	.
2.r	.
=45	=45
1r	.
2r	.
=46	=46
{4.e	{Et
4a	sans
8a	nous
4cc#	tour-
8cc#	-men-
4ee	-ter
8ee	des
=47	=47
2.dd#	cho-
2.a}	-ses,}
=48	=48
{(8a	{Pour
8b)	|
8ccn	mou-
(8ccn	-rir
8b)	|
8a	A-
2.a}	-pre\s,}
=49	=49
4r	.
8r	.
{4a	{Nous
8a	di-
4.cc#}	-rons:}
4r	.
8r	.
=50	=50
{4ee	{<<Au-
8ee	-jourd'-
4ff#	-hui
8ff#	les
[2.aa	ro-
=51	=51
2.aa]	|
2.a}	-ses!}
!!m. 52/53 melodically equivalent to m. 5
*-	*-
